X:1
T:60 Lessons for 2 Guitars, Op.168 - Joseph Küffner (1776 - 1856)
T:Leçon No.50
T:60 Lessons for 2 Guitars, Op.168 "à l'usage des commençants"
T:Joseph Küffner (1776 - 1856)
%%score { ( 1 2 ) 3 }
L:1/8
Q:1/4=120
M:3/4
K:A
V:1 treble-8 nm="Classical Guitar"
V:2 treble-8 
V:3 treble-8 nm="Guitare classique"
V:1
"^Ländler""_" [Ac]2 [Ac]2 [Bd]2 | [ce]2 !>![ca]4 | z2 [Bdg]2 [Bdg]2 | z2 [cea]2 [cea]2 | %4
 [Ac]2 [Ac]2 [Bd]2 | [ce]2 !>![ca]4 | z2 [Bdg]2 [Bdg]2 | A,2 [cea]2 z2 ::"_" edBdE,d | edBdE,d | %10
 ecAcE,c | ecAcE,c | edBdE,d | edBdE,d | (fe)cedB |{/G} A2 A,2 z2 :| %16
V:2
 x6 | x6 | E,6 | A,6 | x6 | x6 | E,6 | x6 :: x6 | x6 | x6 | x6 | x6 | x6 | x6 | x6 :| %16
V:3
"_" A,AA,AA,A | A,AA,AA,A | .E,.E(^DE).F.G | .A(GA).E.C.E | A,AA,AA,A | A,AA,AA,A | %6
 .E,.E(^DE).F.G | A2 A,2 z2 ::"_" [E,Bdg]2 z2 [E,Bdg]2 | [E,Bdg]2 z2 [E,Bdg]2 | %10
 [A,cea]2 z2 [A,cea]2 | [A,cea]2 z2 [A,cea]2 | [E,Bdg]2 z2 [E,Bdg]2 | [E,Bdg]2 z2 [E,Bdg]2 | %14
 [A,cea]2 z2 [E,Bdg]2 | A,2 [cea]2 z2 :| %16

